app/img/partner-9.svg

<svg width="228" height="26" viewBox="0 0 228 26" fill="none" xmlns="http://www.w3.org/2000/svg">
<path d="M65.6744 1.27229C68.3884 0.997018 71.2453 1.07384 73.82 1.97649C75.2972 2.54624 76.6455 3.55771 77.2483 4.95328C77.6629 6.43528 76.534 8.17335 74.9419 8.59586C72.4926 8.78792 70.3604 7.28992 67.939 7.2195C66.197 7.13948 64.2459 7.49798 63.0544 8.76232C61.936 9.85061 61.727 11.4318 61.6538 12.8658C61.6956 14.4118 61.9047 16.1403 63.138 17.3054C64.3226 18.5121 66.2214 18.8194 67.9111 18.7522C70.336 18.6946 72.4682 17.1902 74.9175 17.3662C76.2762 17.7055 77.2308 18.9827 77.3458 20.247C77.3981 21.4377 76.4051 22.3212 75.5097 23.0478C73.9176 24.3249 71.7087 24.5842 69.681 24.7442C67.1446 24.9747 64.5281 24.7922 62.1277 23.9728C58.2987 22.6316 55.2781 19.4276 54.5639 15.6986C54.0169 12.6065 54.2712 9.23604 56.1386 6.53451C58.1419 3.46808 61.8873 1.6852 65.6744 1.27229Z" fill="#00F0FF"/>
<path d="M186.207 1.24032C189.869 0.830612 193.83 1.50919 196.743 3.67938C202.537 7.79569 202.986 16.7293 197.756 21.3929C193.955 24.9875 187.719 25.6725 182.754 23.9312C179.033 22.5549 176.1 19.4436 175.358 15.7978C174.793 12.7954 175.009 9.53054 176.706 6.84822C178.65 3.71458 182.312 1.60202 186.207 1.24032ZM186.555 7.34117C182.127 8.32383 180.929 13.983 183.674 16.9822C185.36 18.9187 188.534 19.2003 190.907 18.2881C195.129 16.4668 195.325 10.1227 191.409 7.91732C189.959 7.1107 188.175 7.0819 186.555 7.34117Z" fill="#00F0FF"/>
<path d="M1.45051 2.69352C2.20305 1.90291 3.3911 1.63402 4.49553 1.66283C8.79828 1.67244 13.101 1.67564 17.4038 1.66283C18.017 1.66603 18.6615 1.67564 19.2155 1.95092C21.4278 3.06162 20.8913 7.00507 18.1494 7.08509C14.8082 7.16832 11.4635 7.08511 8.12238 7.12352C8.12238 7.82771 8.12587 8.5351 8.12587 9.24249C11.0176 9.35772 13.979 8.9512 16.815 9.61378C21.0515 10.8621 23.3196 15.5642 22.0445 19.3828C21.3651 21.4762 19.7241 23.3871 17.4351 24.1329C16.0868 24.5298 14.6444 24.5106 13.2439 24.5138C10.4497 24.4914 7.65901 24.5298 4.86483 24.4978C3.72208 24.4274 2.40861 24.3986 1.55154 23.5919C0.659638 22.8077 0.715382 21.5882 0.680542 20.5479C0.690994 15.4265 0.67009 10.3052 0.690994 5.18698C0.771126 4.33556 0.711898 3.32729 1.45051 2.69352ZM8.12587 13.9509C8.12238 15.6154 8.12238 17.283 8.12238 18.9475C10.0421 18.8995 11.9792 19.0755 13.8884 18.8611C16.4561 18.429 16.3446 14.2422 13.6968 14.0022C11.8468 13.8645 9.98284 13.9862 8.12587 13.9509Z" fill="#00F0FF"/>
<path d="M25.5559 1.88714C27.1934 1.3558 29.4232 1.3622 30.6147 2.68736C31.6982 4.40942 31.0641 6.50278 31.2349 8.38809C34.1823 8.55774 37.3946 7.86635 40.0947 9.27153C43.1327 10.8784 44.3138 14.3129 44.2476 17.3697C44.265 20.7242 41.4291 24.1235 37.6629 24.3828C34.3983 24.434 31.1303 24.3796 27.8658 24.4084C26.7335 24.4148 25.4723 24.2772 24.6222 23.5218C23.9254 22.8176 23.8035 21.8125 23.793 20.9035C23.7965 15.5516 23.793 10.203 23.793 4.85435C23.7826 3.68923 24.2355 2.30645 25.5559 1.88714ZM31.2314 12.9909C31.2314 14.9371 31.2383 16.8832 31.2279 18.8293C32.6389 18.8229 34.0534 18.9093 35.461 18.8101C37.8998 18.2948 38.3562 14.9018 36.5619 13.5319C34.9662 12.6132 33.0013 13.0998 31.2314 12.9909Z" fill="#00F0FF"/>
<path d="M47.1639 1.8965C49.1916 1.07387 52.5676 1.58601 52.808 4.01867C52.8742 9.85064 52.8115 15.6826 52.8394 21.5146C52.9021 22.7245 52.0172 23.912 50.7246 24.2129C49.1672 24.5906 47.1744 24.5202 46.0735 23.291C45.509 22.7245 45.5021 21.9147 45.5021 21.1945C45.523 15.5418 45.4986 9.88905 45.516 4.23953C45.4428 3.22486 46.1919 2.30621 47.1639 1.8965Z" fill="#00F0FF"/>
<path d="M78.8962 3.05523C79.2411 2.05336 80.4187 1.52521 81.5092 1.56682C86.3903 1.55081 91.2679 1.57323 96.149 1.55722C97.1803 1.51241 98.344 1.80689 98.87 2.69673C99.7585 4.10831 99.3055 6.48014 97.3719 6.90585C95.8215 7.13952 94.2363 6.95387 92.672 7.01149C92.658 11.7456 92.6894 16.4764 92.6581 21.2105C92.665 22.2892 92.3097 23.5183 91.139 23.9985C89.5817 24.6258 87.54 24.6354 86.1708 23.6208C85.3312 22.9326 85.258 21.8347 85.2301 20.8744C85.2232 16.2524 85.2336 11.6303 85.2267 7.01149C83.617 6.93787 81.9726 7.18114 80.3943 6.85465C78.6837 6.37772 78.4154 4.40279 78.8962 3.05523Z" fill="#00F0FF"/>
<path d="M101.539 2.45667C102.601 1.51562 104.19 1.62445 105.556 1.56043C108.566 1.61164 111.58 1.46439 114.583 1.64364C116.928 1.72366 118.893 3.21526 120.046 5.00454C121.635 7.4308 121.317 10.494 120.297 13.0579C119.377 15.4298 116.99 17.3247 114.221 17.5487C112.193 17.6127 110.162 17.5615 108.137 17.5647C107.974 19.3284 108.437 21.1913 107.73 22.8846C106.873 24.501 104.577 24.4722 102.925 24.2033C101.434 23.9377 100.616 22.5485 100.692 21.2297C100.647 15.9963 100.696 10.7629 100.671 5.52949C100.689 4.4732 100.664 3.26329 101.539 2.45667ZM108.117 6.2625C108.113 8.21823 108.11 10.1707 108.12 12.1233C109.852 12.0016 111.733 12.4626 113.343 11.6976C115.234 10.3756 114.844 6.88666 112.381 6.33932C110.967 6.16647 109.535 6.30731 108.117 6.2625Z" fill="#00F0FF"/>
<path d="M154.914 1.8965C156.199 1.41958 157.676 1.44838 158.965 1.9125C159.941 2.29981 160.561 3.24726 160.592 4.21072C160.638 6.20806 160.586 8.20859 160.61 10.2059C162.463 10.2027 164.317 10.2059 166.17 10.2059C166.219 8.20219 166.073 6.19526 166.261 4.19792C166.32 3.25367 166.86 2.2582 167.874 1.9125C169.285 1.39397 170.975 1.41317 172.32 2.08855C173.236 2.58468 173.619 3.58975 173.612 4.5244C173.609 10.1867 173.619 15.8523 173.609 21.5146C173.616 22.5164 173.09 23.5887 172.051 24.0145C170.682 24.5522 169.055 24.549 167.7 23.9792C166.832 23.5951 166.338 22.7309 166.278 21.8731C166.055 19.8085 166.226 17.728 166.174 15.657C164.317 15.6506 162.463 15.6506 160.61 15.6538C160.596 17.6127 160.617 19.5717 160.606 21.5338C160.634 22.6125 159.955 23.7328 158.812 24.1041C157.429 24.549 155.823 24.533 154.52 23.8864C153.67 23.3743 153.199 22.4364 153.28 21.5082C153.287 15.7402 153.273 9.97227 153.29 4.20752C153.255 3.23125 153.921 2.2582 154.914 1.8965Z" fill="#00F0FF"/>
<path d="M204.62 1.83248C206.348 1.25953 208.553 1.56041 209.766 2.91117C211.56 4.73886 213.201 6.6882 214.967 8.54149C216.699 6.67219 218.354 4.73887 220.127 2.90158C221.514 1.40037 224.099 1.18271 225.904 2.13657C227.008 2.77034 227.134 4.08909 227.151 5.17418C227.151 10.4172 227.158 15.6602 227.148 20.9032C227.144 21.9819 226.966 23.2623 225.848 23.8608C224.326 24.629 222.319 24.6066 220.845 23.7584C219.911 23.2174 219.748 22.1131 219.713 21.1913C219.702 18.2241 219.72 15.2601 219.709 12.2961C218.134 14.0086 216.507 15.6858 214.974 17.4335C213.386 15.7274 211.811 14.0054 210.194 12.3217C210.191 15.3785 210.205 18.4386 210.191 21.4986C210.205 22.5164 209.668 23.6015 208.609 24.0241C207.32 24.5298 205.805 24.533 204.498 24.0689C203.394 23.6816 202.78 22.5645 202.868 21.5146C202.878 15.753 202.864 9.99147 202.875 4.22992C202.822 3.18324 203.536 2.17817 204.62 1.83248Z" fill="#00F0FF"/>
<path d="M128.365 14.7286C131.571 13.8612 135.163 16.1914 135.386 19.2418C135.8 22.4331 132.33 25.3523 128.912 24.7473C126 24.3888 123.725 21.6777 124.209 18.9954C124.484 16.9756 126.223 15.2184 128.365 14.7286Z" fill="#00F0FF"/>
<path d="M127.651 1.54454C130.773 0.232188 134.759 2.25833 135.306 5.34396C135.996 8.20553 133.431 11.2016 130.278 11.384C127.582 11.6593 124.854 9.85719 124.3 7.41493C123.641 5.04949 125.185 2.41197 127.651 1.54454Z" fill="#00F0FF"/>
<path d="M141.911 1.54799C144.977 0.264447 148.9 2.16256 149.534 5.18737C150.394 8.20578 147.558 11.4067 144.207 11.4035C141.364 11.5347 138.685 9.3709 138.444 6.7718C138.169 4.57281 139.695 2.36421 141.911 1.54799Z" fill="#00F0FF"/>
<path d="M142.988 14.6551C146.486 13.9093 150.137 16.9053 149.649 20.1926C149.391 23.1438 145.998 25.4132 142.869 24.693C140.075 24.1968 137.981 21.5305 138.479 18.9346C138.807 16.8285 140.713 15.036 142.988 14.6551Z" fill="#00F0FF"/>
</svg>

<svg width="228" height="26" fill="none" xmlns="http://www.w3.org/2000/svg"><path d="M65.674 1.272c2.714-.275 5.571-.198 8.146.704 1.477.57 2.826 1.582 3.428 2.977.415 1.482-.714 3.22-2.306 3.643-2.45.192-4.582-1.306-7.003-1.377-1.742-.08-3.693.279-4.885 1.543-1.118 1.089-1.327 2.67-1.4 4.104.042 1.546.25 3.274 1.484 4.44 1.185 1.206 3.083 1.513 4.773 1.446 2.425-.057 4.557-1.562 7.007-1.386 1.358.34 2.313 1.617 2.428 2.881.052 1.19-.94 2.074-1.836 2.8-1.592 1.278-3.801 1.537-5.829 1.697-2.536.23-5.153.048-7.553-.771-3.83-1.341-6.85-4.545-7.564-8.274-.547-3.092-.293-6.463 1.575-9.164 2.003-3.067 5.748-4.85 9.535-5.263zm120.533-.032c3.662-.41 7.623.27 10.536 2.44 5.794 4.116 6.243 13.05 1.013 17.713-3.801 3.595-10.037 4.28-15.002 2.538-3.721-1.376-6.654-4.487-7.396-8.133-.565-3.003-.349-6.267 1.348-8.95 1.944-3.133 5.606-5.246 9.501-5.608zm.348 6.101c-4.428.983-5.626 6.642-2.881 9.641 1.686 1.937 4.86 2.218 7.233 1.306 4.222-1.821 4.418-8.165.502-10.37-1.45-.807-3.234-.836-4.854-.577zM1.45 2.694c.753-.791 1.941-1.06 3.046-1.031 4.302.01 8.605.013 12.908 0 .613.003 1.258.013 1.811.288 2.213 1.11 1.676 5.054-1.066 5.134-3.34.083-6.686 0-10.027.039 0 .704.004 1.411.004 2.118 2.892.116 5.853-.29 8.689.372 4.236 1.248 6.505 5.95 5.23 9.769-.68 2.093-2.32 4.004-4.61 4.75-1.348.397-2.79.378-4.191.38-2.794-.022-5.585.017-8.38-.015-1.142-.07-2.455-.1-3.312-.906-.892-.784-.837-2.004-.871-3.044.01-5.121-.01-10.243.01-15.361.08-.851.02-1.86.76-2.493zM8.127 13.95c-.004 1.664-.004 3.332-.004 4.997 1.92-.049 3.857.128 5.766-.087 2.568-.432 2.457-4.619-.191-4.859-1.85-.138-3.714-.016-5.571-.051zM25.556 1.887c1.637-.531 3.867-.525 5.059.8 1.083 1.722.45 3.816.62 5.701 2.947.17 6.16-.522 8.86.884 3.038 1.606 4.219 5.04 4.153 8.098.017 3.354-2.819 6.753-6.585 7.013-3.265.051-6.533-.003-9.797.025-1.133.007-2.394-.13-3.244-.886-.697-.704-.819-1.71-.829-2.618.004-5.352 0-10.701 0-16.05-.01-1.165.442-2.548 1.763-2.967zm5.675 11.104c0 1.946.007 3.892-.003 5.838 1.41-.006 2.825.08 4.233-.019 2.439-.515 2.895-3.908 1.1-5.278-1.595-.919-3.56-.432-5.33-.541zM47.164 1.897c2.028-.823 5.404-.311 5.644 2.122.066 5.832.004 11.664.031 17.496.063 1.21-.822 2.397-2.114 2.698-1.558.378-3.55.307-4.651-.922-.565-.567-.572-1.376-.572-2.096.021-5.653-.003-11.306.014-16.955-.073-1.015.676-1.934 1.648-2.344zm31.732 1.158c.345-1.002 1.523-1.53 2.613-1.488 4.881-.016 9.759.006 14.64-.01 1.031-.045 2.195.25 2.721 1.14.888 1.411.435 3.783-1.498 4.209-1.55.234-3.136.048-4.7.105-.014 4.735.017 9.465-.014 14.2.007 1.078-.348 2.307-1.519 2.788-1.557.627-3.599.636-4.968-.378-.84-.688-.913-1.786-.94-2.747-.008-4.622.003-9.244-.004-13.863-1.61-.073-3.254.17-4.833-.156-1.71-.477-1.979-2.452-1.498-3.8zm22.643-.598c1.062-.941 2.651-.833 4.017-.897 3.01.052 6.024-.096 9.027.084 2.345.08 4.31 1.571 5.463 3.36 1.589 2.427 1.271 5.49.251 8.054-.92 2.372-3.307 4.267-6.076 4.49-2.028.065-4.059.014-6.084.017-.163 1.763.3 3.626-.407 5.32-.857 1.616-3.153 1.587-4.805 1.318-1.491-.265-2.309-1.654-2.233-2.973-.045-5.234.004-10.467-.021-15.7.018-1.057-.007-2.267.868-3.073zm6.578 3.806c-.004 1.955-.007 3.908.003 5.86 1.732-.121 3.613.34 5.223-.425 1.891-1.322 1.501-4.811-.962-5.359-1.414-.173-2.846-.032-4.264-.077zm46.797-4.366c1.285-.477 2.762-.449 4.051.016a2.6 2.6 0 011.627 2.298c.046 1.997-.006 3.998.018 5.995 1.853-.003 3.707 0 5.56 0 .049-2.004-.097-4.01.091-6.008.059-.944.599-1.94 1.613-2.286 1.411-.518 3.101-.499 4.446.177.916.496 1.299 1.5 1.292 2.435-.003 5.663.007 11.328-.003 16.99.007 1.002-.519 2.075-1.558 2.5-1.369.538-2.996.535-4.351-.035-.868-.384-1.362-1.248-1.422-2.106-.223-2.065-.052-4.145-.104-6.216-1.857-.006-3.711-.006-5.564-.003-.014 1.959.007 3.918-.004 5.88.028 1.079-.651 2.199-1.794 2.57-1.383.445-2.989.429-4.292-.218-.85-.512-1.321-1.45-1.24-2.378.007-5.768-.007-11.536.01-17.3-.035-.977.631-1.95 1.624-2.312zm49.706-.065c1.728-.572 3.933-.272 5.146 1.08 1.794 1.827 3.435 3.776 5.201 5.63 1.732-1.87 3.387-3.803 5.16-5.64 1.387-1.502 3.972-1.72 5.777-.765 1.104.633 1.23 1.952 1.247 3.037 0 5.243.007 10.486-.003 15.73-.004 1.078-.182 2.358-1.3 2.957-1.522.768-3.529.746-5.003-.103-.934-.54-1.097-1.645-1.132-2.567-.011-2.967.007-5.93-.004-8.895-1.575 1.713-3.202 3.39-4.735 5.137-1.588-1.706-3.163-3.428-4.78-5.111-.003 3.057.011 6.117-.003 9.177.014 1.017-.523 2.103-1.582 2.525-1.289.506-2.804.509-4.111.045-1.104-.387-1.718-1.505-1.63-2.554.01-5.762-.004-11.524.007-17.285-.053-1.047.661-2.052 1.745-2.398zm-76.255 12.897c3.206-.868 6.798 1.462 7.021 4.513.414 3.191-3.056 6.11-6.474 5.505-2.912-.358-5.187-3.07-4.703-5.752.275-2.02 2.014-3.777 4.156-4.266zm-.714-13.184c3.122-1.313 7.108.713 7.655 3.799.69 2.862-1.875 5.858-5.028 6.04-2.696.275-5.424-1.527-5.978-3.97-.659-2.365.885-5.002 3.351-5.87zm14.26.003c3.066-1.284 6.989.615 7.623 3.64.86 3.018-1.976 6.219-5.327 6.215-2.843.132-5.522-2.032-5.763-4.631-.275-2.2 1.251-4.408 3.467-5.224zm1.077 13.107c3.498-.746 7.149 2.25 6.661 5.538-.258 2.95-3.651 5.22-6.78 4.5-2.794-.496-4.888-3.163-4.39-5.758.328-2.107 2.234-3.899 4.509-4.28z" fill="#00F0FF"/></svg>
